local/share/icons/dracula-icons-main/16/devices/drive-harddisk-root.svg

<svg xmlns="http://www.w3.org/2000/svg" width="16" height="16" version="1.1" viewBox="0 0 16 16">
 <defs>
  <style id="current-color-scheme" type="text/css">
   .ColorScheme-Text { color:#727272; } .ColorScheme-Highlight { color:#5294e2; }
  </style>
 </defs>
 <path style="fill:currentColor" class="ColorScheme-Text" d="m3 1c-1 0-1 1-1 1v12s0 1 1 1h10s1 0 1-1v-12s0-1-1-1zm5 2c5.3333 0 5.3333 8 0 8h-4v-4c0-2.2091 1.7909-4 4-4z"/>
 <path style="fill:currentColor" class="ColorScheme-Text" d="m8 4-3 6h1l3-6z"/>
 <rect style="fill:currentColor" class="ColorScheme-Text" x="8" y="9" width="2" height="1"/>
</svg>

<?xml version="1.0" encoding="UTF-8"?>
<svg xmlns="http://www.w3.org/2000/svg" xmlns:xlink="http://www.w3.org/1999/xlink" width="16" height="16" viewBox="0 0 16 16">
<path fill-rule="nonzero" fill="rgb(44.705882%, 44.705882%, 44.705882%)" fill-opacity="1" d="M 3 1 C 2 1 2 2 2 2 L 2 14 C 2 14 2 15 3 15 L 13 15 C 13 15 14 15 14 14 L 14 2 C 14 2 14 1 13 1 Z M 8 3 C 13.332031 3 13.332031 11 8 11 L 4 11 L 4 7 C 4 4.789062 5.789062 3 8 3 Z M 8 3 "/>
<path fill-rule="nonzero" fill="rgb(44.705882%, 44.705882%, 44.705882%)" fill-opacity="1" d="M 8 4 L 5 10 L 6 10 L 9 4 Z M 8 4 "/>
<path fill-rule="nonzero" fill="rgb(44.705882%, 44.705882%, 44.705882%)" fill-opacity="1" d="M 8 9 L 10 9 L 10 10 L 8 10 Z M 8 9 "/>
</svg>
